X:229
T:Rhone. VWMLa.229, The
%%VWML:Anon2-3049-p148-0
F:http://www.vwml.org/record/Anon2/3049/p148
S:Anon. MS, late 18thC, Vaughan Williams Mem. Library
O:England;Yorkshire
Z:vmp/efdss.Simon Wilson. Reviewed PJH 2008.
M:2/4
L:1/8
Q:1/4=110
K:D
dd(dc)|BB(Bc)|dd(de)|(dc)BA|\
dd(dc)|BBBe|ccff|d2 d2:|
fd de/f/|ge ef/g/|afba|(ag)fz|\
fd de/f/|ge ef|e/f/e/d/ c/d/c/B/|\
"P"A3B/c/|
dd(dc)|BB(Bc)|dd(de)|(dc)BA|\
dd(dc)|BBBe|(d/c/)B/A/ Bc|d2 d2|]
